X:0835
T:Mrs. Sevewright's Reel.
M:C
L:1/8
Q:1/2=112
I: :: ||
Z:Jack Campin * www.campin.me.uk * 2009
K:G
c|B2GB dgdB|ceBG FAAc|BGBd efge|afdf g/g/g g:|
c|BGBd ceAc|BgdB eAAc|BGBd ceAG|FGAc BGG
c|BGBd ceAc|BdgB eAAc|Bdge afge|fadf g/g/g g|]

